X: 15517
T: Glenside, The
R: polka
M: 2/4
K: Adorian
|:e>g ed|^c/B/A G2|e>g ed|e/f/g a2|
e>g ed|BA G>A|BG dB|A2 A2:|
|:ea ab|ag ed|ea ab|ag ef|
g>a ge|dB G>A|BG dB|A2 A2:|

